<?xml version="1.0" encoding="UTF-8"?>
<map version="1.10" tiledversion="1.11.2" orientation="orthogonal" renderorder="right-down" width="48" height="32" tilewidth="16" tileheight="16" infinite="0" nextlayerid="26" nextobjectid="66">
 <editorsettings>
  <export target="indoor.json" format="json"/>
 </editorsettings>
 <tileset firstgid="1" name="tileset" tilewidth="16" tileheight="16" tilecount="1024" columns="32">
  <image source="../assets/tiles_interior.png" width="512" height="512"/>
 </tileset>
 <tileset firstgid="1025" name="banner" tilewidth="16" tileheight="16" tilecount="324" columns="18">
  <image source="../assets/banners.png" width="296" height="300"/>
 </tileset>
 <tileset firstgid="1349" name="signpost" tilewidth="16" tileheight="16" tilecount="36" columns="6">
  <image source="../assets/signpost.png" width="102" height="102"/>
 </tileset>
 <objectgroup id="25" name="Portals">
  <object id="57" type="Portals" x="336" y="496" width="96" height="16">
   <properties>
    <property name="auto" type="bool" value="true"/>
    <property name="prompt" value="E: Enter"/>
    <property name="targetMap" value="maps/outdoor.json"/>
    <property name="targetSpawn" value="toOut"/>
   </properties>
  </object>
  <object id="58" type="Portals" x="32" y="0" width="48" height="16">
   <properties>
    <property name="auto" type="bool" value="true"/>
    <property name="prompt" value="E: Enter"/>
    <property name="targetMap" value="maps/indoor2.json"/>
    <property name="targetSpawn" value="fromLibrary"/>
   </properties>
  </object>
 </objectgroup>
 <objectgroup id="24" name="Spawns">
  <object id="64" type="Spawns" x="48" y="64">
   <properties>
    <property name="facing" value="down"/>
    <property name="id" value="fromSecond"/>
   </properties>
   <point/>
  </object>
  <object id="65" type="Spawns" x="384" y="448">
   <properties>
    <property name="facing" value="up"/>
    <property name="id" value="toLibrary"/>
   </properties>
   <point/>
  </object>
 </objectgroup>
 <objectgroup id="22" name="Hotspots">
  <object id="47" type="Hotspots" x="432" y="144">
   <properties>
    <property name="action" value="modal"/>
    <property name="active" type="bool" value="true"/>
    <property name="id" value="nlp"/>
    <property name="radius" type="int" value="10"/>
    <property name="title" value="NLP and LLMS"/>
   </properties>
   <point/>
  </object>
  <object id="48" type="Hotspots" x="592" y="144">
   <properties>
    <property name="action" value="modal"/>
    <property name="active" type="bool" value="true"/>
    <property name="id" value="agent"/>
    <property name="radius" type="int" value="10"/>
    <property name="title" value="Agentic AI"/>
   </properties>
   <point/>
  </object>
  <object id="49" type="Hotspots" x="688" y="288">
   <properties>
    <property name="action" value="modal"/>
    <property name="active" type="bool" value="true"/>
    <property name="id" value="RL"/>
    <property name="radius" type="int" value="10"/>
    <property name="title" value="Reinforcement Learning"/>
   </properties>
   <point/>
  </object>
  <object id="50" type="Hotspots" x="480" y="336">
   <properties>
    <property name="action" value="modal"/>
    <property name="active" type="bool" value="true"/>
    <property name="id" value="ME"/>
    <property name="radius" type="int" value="10"/>
    <property name="title" value="About Me"/>
   </properties>
   <point/>
  </object>
  <object id="54" type="Hotspots" x="256" y="144">
   <properties>
    <property name="action" value="modal"/>
    <property name="active" type="bool" value="true"/>
    <property name="id" value="cs"/>
    <property name="radius" type="int" value="10"/>
    <property name="title" value="Computer Vision"/>
   </properties>
   <point/>
  </object>
 </objectgroup>
 <objectgroup id="21" name="Collision">
  <object id="23" type="Collision" x="90.75" y="2.75" width="677.25" height="94.5833">
   <properties>
    <property name="solid" type="bool" value="true"/>
   </properties>
  </object>
  <object id="30" type="Collision" x="736" y="96" width="32" height="416">
   <properties>
    <property name="solid" type="bool" value="true"/>
   </properties>
  </object>
  <object id="31" type="Collision" x="0" y="0" width="21.25" height="512">
   <properties>
    <property name="solid" type="bool" value="true"/>
   </properties>
  </object>
  <object id="32" type="Collision" x="160" y="288" width="192" height="94.5833">
   <properties>
    <property name="solid" type="bool" value="true"/>
   </properties>
  </object>
  <object id="33" type="Collision" x="224" y="368" width="64" height="64">
   <properties>
    <property name="solid" type="bool" value="true"/>
   </properties>
  </object>
  <object id="34" type="Collision" x="416" y="226.75" width="128" height="94.5833">
   <properties>
    <property name="solid" type="bool" value="true"/>
   </properties>
  </object>
  <object id="35" type="Collision" x="448" y="160" width="64" height="62.5833">
   <properties>
    <property name="solid" type="bool" value="true"/>
   </properties>
  </object>
  <object id="36" type="Collision" x="208" y="96" width="96" height="32">
   <properties>
    <property name="solid" type="bool" value="true"/>
   </properties>
  </object>
  <object id="37" type="Collision" x="384" y="96" width="96" height="32">
   <properties>
    <property name="solid" type="bool" value="true"/>
   </properties>
  </object>
  <object id="38" type="Collision" x="544" y="96" width="96" height="32">
   <properties>
    <property name="solid" type="bool" value="true"/>
   </properties>
  </object>
  <object id="39" type="Collision" x="544" y="96" width="96" height="32">
   <properties>
    <property name="solid" type="bool" value="true"/>
   </properties>
  </object>
  <object id="40" type="Collision" x="688" y="96" width="48" height="32">
   <properties>
    <property name="solid" type="bool" value="true"/>
   </properties>
  </object>
  <object id="41" type="Collision" x="624" y="144" width="128" height="32">
   <properties>
    <property name="solid" type="bool" value="true"/>
   </properties>
  </object>
  <object id="42" type="Collision" x="640" y="176" width="96" height="96">
   <properties>
    <property name="solid" type="bool" value="true"/>
   </properties>
  </object>
  <object id="43" type="Collision" x="640" y="416" width="96" height="96">
   <properties>
    <property name="solid" type="bool" value="true"/>
   </properties>
  </object>
 </objectgroup>
 <layer id="13" name="Floor" width="48" height="32">
  <data encoding="csv">
193,194,195,196,197,198,193,194,195,196,197,198,193,194,195,196,197,198,193,194,195,196,197,198,193,194,195,196,197,198,193,194,195,196,197,198,193,194,195,196,197,198,193,194,195,196,197,198,
225,226,227,228,229,230,225,226,227,228,229,230,225,226,227,228,229,230,225,226,227,228,229,230,225,226,227,228,229,230,225,226,227,228,229,230,225,226,227,228,229,230,225,226,227,228,229,230,
257,258,259,260,261,262,257,258,259,260,261,262,257,258,259,260,261,262,257,258,259,260,261,262,257,258,259,260,261,262,257,258,259,260,261,262,257,258,259,260,261,262,257,258,259,260,261,262,
289,290,291,292,293,294,289,290,291,292,293,294,289,290,291,292,293,294,289,290,291,292,293,294,289,290,291,292,293,294,289,290,291,292,293,294,289,290,291,292,293,294,289,290,291,292,293,294,
321,322,323,324,325,326,321,322,323,324,325,326,321,322,323,324,325,326,321,322,323,324,325,326,321,322,323,324,325,326,321,322,323,324,325,326,321,322,323,324,325,326,321,322,323,324,325,326,
353,354,355,356,357,358,353,354,355,356,357,358,353,354,355,356,357,358,353,354,355,356,357,358,353,354,355,356,357,358,353,354,355,356,357,358,353,354,355,356,357,358,353,354,355,356,357,358,
193,194,195,196,197,198,193,194,195,196,197,198,193,194,195,196,197,198,193,194,195,196,197,198,193,194,195,196,197,198,193,194,195,196,197,198,193,194,195,196,197,198,193,194,195,196,197,198,
225,226,227,228,229,230,225,226,227,228,229,230,225,226,227,228,229,230,225,226,227,228,229,230,225,226,227,228,229,230,225,226,227,228,229,230,225,226,227,228,229,230,225,226,227,228,229,230,
257,258,259,260,261,262,257,258,259,260,261,262,257,258,259,260,261,262,257,258,259,260,261,262,257,258,259,260,261,262,257,258,259,260,261,262,257,258,259,260,261,262,257,258,259,260,261,262,
289,290,291,292,293,294,289,290,291,292,293,294,289,290,291,292,293,294,289,290,291,292,293,294,289,290,291,292,293,294,289,290,291,292,293,294,289,290,291,292,293,294,289,290,291,292,293,294,
321,322,323,324,325,326,321,322,323,324,325,326,321,322,323,324,325,326,321,322,323,324,325,326,321,322,323,324,325,326,321,322,323,324,325,326,321,322,323,324,325,326,321,322,323,324,325,326,
353,354,355,356,357,358,353,354,355,356,357,358,353,354,355,356,357,358,353,354,355,356,357,358,353,354,355,356,357,358,353,354,355,356,357,358,353,354,355,356,357,358,353,354,355,356,357,358,
193,194,195,196,197,198,193,194,195,196,197,198,193,194,195,196,197,198,193,194,195,196,197,198,193,194,195,196,197,198,193,194,195,196,197,198,193,194,195,196,197,198,193,194,195,196,197,198,
225,226,227,228,229,230,225,226,227,228,229,230,225,226,227,228,229,230,225,226,227,228,229,230,225,226,227,228,229,230,225,226,227,228,229,230,225,226,227,228,229,230,225,226,227,228,229,230,
257,258,259,260,261,262,257,258,259,260,261,262,257,258,259,260,261,262,257,258,259,260,261,262,257,258,259,260,261,262,257,258,259,260,261,262,257,258,259,260,261,262,257,258,259,260,261,262,
289,290,291,292,293,294,289,290,291,292,293,294,289,290,291,292,293,294,289,290,291,292,293,294,289,290,291,292,293,294,289,290,291,292,293,294,289,290,291,292,293,294,289,290,291,292,293,294,
321,322,323,324,325,326,321,322,323,324,325,326,321,322,323,324,325,326,321,322,323,324,325,326,321,322,323,324,325,326,321,322,323,324,325,326,321,322,323,324,325,326,321,322,323,324,325,326,
353,354,355,356,357,358,353,354,355,356,357,358,353,354,355,356,357,358,353,354,355,356,357,358,353,354,355,356,357,358,353,354,355,356,357,358,353,354,355,356,357,358,353,354,355,356,357,358,
193,194,195,196,197,198,193,194,195,196,197,198,193,194,195,196,197,198,193,194,195,196,197,198,193,194,195,196,197,198,193,194,195,196,197,198,193,194,195,196,197,198,193,194,195,196,197,198,
225,226,227,228,229,230,225,226,227,228,229,230,225,226,227,228,229,230,225,226,227,228,229,230,225,226,227,228,229,230,225,226,227,228,229,230,225,226,227,228,229,230,225,226,227,228,229,230,
257,258,259,260,261,262,257,258,259,260,261,262,257,258,259,260,261,262,257,258,259,260,261,262,257,258,259,260,261,262,257,258,259,260,261,262,257,258,259,260,261,262,257,258,259,260,261,262,
289,290,291,292,293,294,289,290,291,292,293,294,289,290,291,292,293,294,289,290,291,292,293,294,289,290,291,292,293,294,289,290,291,292,293,294,289,290,291,292,293,294,289,290,291,292,293,294,
321,322,323,324,325,326,321,322,323,324,325,326,321,322,323,324,325,326,321,322,323,324,325,326,321,322,323,324,325,326,321,322,323,324,325,326,321,322,323,324,325,326,321,322,323,324,325,326,
353,354,355,356,357,358,353,354,355,356,357,358,353,354,355,356,357,358,353,354,355,356,357,358,353,354,355,356,357,358,353,354,355,356,357,358,353,354,355,356,357,358,353,354,355,356,357,358,
193,194,195,196,197,198,193,194,195,196,197,198,193,194,195,196,197,198,193,194,195,196,197,198,193,194,195,196,197,198,193,194,195,196,197,198,193,194,195,196,197,198,193,194,195,196,197,198,
225,226,227,228,229,230,225,226,227,228,229,230,225,226,227,228,229,230,225,226,227,228,229,230,225,226,227,228,229,230,225,226,227,228,229,230,225,226,227,228,229,230,225,226,227,228,229,230,
257,258,259,260,261,262,257,258,259,260,261,262,257,258,259,260,261,262,257,258,259,260,261,262,257,258,259,260,261,262,257,258,259,260,261,262,257,258,259,260,261,262,257,258,259,260,261,262,
289,290,291,292,293,294,289,290,291,292,293,294,289,290,291,292,293,294,289,290,291,292,293,294,289,290,291,292,293,294,289,290,291,292,293,294,289,290,291,292,293,294,289,290,291,292,293,294,
321,322,323,324,325,326,321,322,323,324,325,326,321,322,323,324,325,326,321,322,323,324,325,326,321,322,323,324,325,326,321,322,323,324,325,326,321,322,323,324,325,326,321,322,323,324,325,326,
353,354,355,356,357,358,353,354,355,356,357,358,353,354,355,356,357,358,353,354,355,356,357,358,353,354,355,356,357,358,353,354,355,356,357,358,353,354,355,356,357,358,353,354,355,356,357,358,
193,194,195,196,197,198,193,194,195,196,197,198,193,194,195,196,197,198,193,194,195,196,197,198,193,194,195,196,197,198,193,194,195,196,197,198,193,194,195,196,197,198,193,194,195,196,197,198,
225,226,227,228,229,230,225,226,227,228,229,230,225,226,227,228,229,230,225,226,227,228,229,230,225,226,227,228,229,230,225,226,227,228,229,230,225,226,227,228,229,230,225,226,227,228,229,230
</data>
 </layer>
 <layer id="14" name="Walls" width="48" height="32">
  <data encoding="csv">
514,782,783,784,785,786,19,20,21,22,23,24,25,26,27,28,29,30,31,32,19,20,21,22,23,24,25,26,27,28,29,30,31,32,19,20,21,22,23,24,25,26,27,28,29,30,2147484162,2147484161,
546,814,815,816,817,818,51,52,53,54,55,56,57,58,59,60,61,62,63,64,51,52,53,54,55,56,57,58,59,60,61,62,63,64,51,52,53,54,55,56,57,58,59,60,61,62,2147484194,2147484193,
578,846,847,848,849,850,83,84,85,86,87,88,89,90,91,92,93,94,95,96,83,84,85,86,87,88,89,90,91,92,93,94,95,96,83,84,85,86,87,88,89,90,91,92,93,94,2147484226,2147484225,
610,878,879,880,881,882,115,116,117,118,119,120,121,122,123,124,125,126,127,128,115,116,117,118,119,120,121,122,123,124,125,126,127,128,115,116,117,118,119,120,121,122,123,124,125,126,2147484258,2147484257,
642,910,911,912,913,914,147,148,149,150,151,152,153,154,155,156,157,158,159,160,147,148,149,150,151,152,153,154,155,156,157,158,159,160,147,148,149,150,151,152,153,154,155,156,157,158,2147484290,2147484289,
578,942,943,944,945,946,179,180,181,182,183,184,185,186,187,188,189,190,191,192,179,180,181,182,183,184,185,186,187,188,189,190,191,192,179,180,181,182,183,184,185,186,187,188,189,190,2147484322,2147484321,
610,974,975,976,977,978,0,0,0,0,0,0,0,0,0,0,0,0,0,0,0,0,0,0,0,0,0,0,0,0,0,0,0,0,0,0,0,0,0,0,0,0,0,0,0,0,2147484354,2147484353,
642,1006,1007,1008,1009,1010,0,0,0,0,0,0,0,0,0,0,0,0,0,0,0,0,0,0,0,0,0,0,0,0,0,0,0,0,0,0,0,0,0,0,0,0,0,0,0,0,2147484226,2147484225,
674,0,0,0,0,0,0,0,0,0,0,0,0,0,0,0,0,0,0,0,0,0,0,0,0,0,0,0,0,0,0,0,0,0,0,0,0,0,0,0,0,0,0,0,0,0,2147484258,2147484257,
706,0,0,0,0,0,0,0,0,0,0,0,0,0,0,0,0,0,0,0,0,0,0,0,0,0,0,0,0,0,0,0,0,0,0,0,0,0,0,0,0,0,0,0,0,0,2147484290,2147484289,
738,0,0,0,0,0,0,0,0,0,0,0,0,0,0,0,0,0,0,0,0,0,0,0,0,0,0,0,0,0,0,0,0,0,0,0,0,0,0,0,0,0,0,0,0,0,2147484322,2147484321,
770,0,0,0,0,0,0,0,0,0,0,0,0,0,0,0,0,0,0,0,0,0,0,0,0,0,0,0,0,0,0,0,0,0,0,0,0,0,0,0,0,0,0,0,0,0,2147484354,2147484353,
578,0,0,0,0,0,0,0,0,0,0,0,0,0,0,0,0,0,0,0,0,0,0,0,0,0,0,0,0,0,0,0,0,0,0,0,0,0,0,0,0,0,0,0,0,0,2147484386,2147484385,
610,0,0,0,0,0,0,0,0,0,0,0,0,0,0,0,0,0,0,0,0,0,0,0,0,0,0,0,0,0,0,0,0,0,0,0,0,0,0,0,0,0,0,0,0,0,2147484226,2147484225,
642,0,0,0,0,0,0,0,0,0,0,0,0,0,0,0,0,0,0,0,0,0,0,0,0,0,0,0,0,0,0,0,0,0,0,0,0,0,0,0,0,0,0,0,0,0,2147484258,2147484257,
674,0,0,0,0,0,0,0,0,0,0,0,0,0,0,0,0,0,0,0,0,0,0,0,0,0,0,0,0,0,0,0,0,0,0,0,0,0,0,0,0,0,0,0,0,0,2147484290,2147484289,
706,0,0,0,0,0,0,0,0,0,0,0,0,0,0,0,0,0,0,0,0,0,0,0,0,0,0,0,0,0,0,0,0,0,0,0,0,0,0,0,0,0,0,0,0,0,2147484322,2147484321,
738,0,0,0,0,0,0,0,0,0,0,0,0,0,0,0,0,0,0,0,0,0,0,0,0,0,0,0,0,0,0,0,0,0,0,0,0,0,0,0,0,0,0,0,0,0,2147484354,2147484353,
770,0,0,0,0,0,0,0,0,0,0,0,0,0,0,0,0,0,0,0,0,0,0,0,0,0,0,0,0,0,0,0,0,0,0,0,0,0,0,0,0,0,0,0,0,0,2147484386,2147484385,
578,0,0,0,0,0,0,0,0,0,0,0,0,0,0,0,0,0,0,0,0,0,0,0,0,0,0,0,0,0,0,0,0,0,0,0,0,0,0,0,0,0,0,0,0,0,2147484226,2147484225,
610,0,0,0,0,0,0,0,0,0,0,0,0,0,0,0,0,0,0,0,0,0,0,0,0,0,0,0,0,0,0,0,0,0,0,0,0,0,0,0,0,0,0,0,0,0,2147484258,2147484257,
642,0,0,0,0,0,0,0,0,0,0,0,0,0,0,0,0,0,0,0,0,0,0,0,0,0,0,0,0,0,0,0,0,0,0,0,0,0,0,0,0,0,0,0,0,0,2147484290,2147484289,
674,0,0,0,0,0,0,0,0,0,0,0,0,0,0,0,0,0,0,0,0,0,0,0,0,0,0,0,0,0,0,0,0,0,0,0,0,0,0,0,0,0,0,0,0,0,2147484322,2147484321,
706,0,0,0,0,0,0,0,0,0,0,0,0,0,0,0,0,0,0,0,0,0,0,0,0,0,0,0,0,0,0,0,0,0,0,0,0,0,0,0,0,0,0,0,0,0,2147484354,2147484353,
738,0,0,0,0,0,0,0,0,0,0,0,0,0,0,0,0,0,0,0,0,0,0,0,0,0,0,0,0,0,0,0,0,0,0,0,0,0,0,0,0,0,0,0,0,0,2147484418,2147484417,
802,0,0,0,0,0,0,0,0,0,0,0,0,0,0,0,0,0,0,0,0,0,0,0,0,0,0,0,0,0,0,0,0,0,0,0,0,0,0,0,0,0,0,0,0,0,2147484450,2147484449,
834,0,0,0,0,0,0,0,0,0,0,0,0,0,0,0,0,0,0,0,0,0,0,0,0,0,0,0,0,0,0,0,0,0,0,0,0,0,0,0,0,0,0,0,0,0,2147484482,2147484481,
866,0,0,0,0,0,0,0,0,0,0,0,0,0,0,0,0,0,0,0,0,0,0,0,0,0,0,0,0,0,0,0,0,0,0,0,0,0,0,0,0,0,0,0,0,0,2147484514,2147484513,
898,0,0,0,0,0,0,0,0,0,0,0,0,0,0,0,0,0,0,0,0,0,0,0,0,0,0,0,0,0,0,0,0,0,0,0,0,0,0,0,0,0,0,0,0,0,2147484546,2147484545,
930,0,0,0,0,0,0,0,0,0,0,0,0,0,0,0,0,0,0,0,0,0,0,0,0,0,0,0,0,0,0,0,0,0,0,0,0,0,0,0,0,0,0,0,0,0,2147484578,2147484577,
962,0,0,0,0,0,0,0,0,0,0,0,0,0,0,0,0,0,0,0,0,0,0,0,0,0,0,0,0,0,0,0,0,0,0,0,0,0,0,0,0,0,0,0,0,0,2147484610,2147484609,
994,0,0,0,0,0,0,0,0,0,0,0,0,0,0,0,0,0,0,0,0,0,0,0,0,0,0,0,0,0,0,0,0,0,0,0,0,0,0,0,0,0,0,0,0,0,2147484642,2147484641
</data>
 </layer>
 <layer id="15" name="RugEdges" width="48" height="32">
  <data encoding="csv">
0,0,0,0,0,0,0,0,0,0,0,0,0,0,0,0,0,0,0,0,0,0,0,0,0,0,0,0,0,0,0,0,0,0,0,0,0,0,0,0,0,0,0,0,0,0,0,0,
0,0,0,0,0,0,0,0,0,0,0,0,0,0,0,0,0,0,0,0,0,0,0,0,0,0,0,0,0,0,0,0,0,0,0,0,0,0,0,0,0,0,0,0,0,0,0,0,
0,0,0,0,0,0,0,0,0,0,0,0,0,0,0,0,0,0,0,0,0,0,0,0,0,0,0,0,0,0,0,0,0,0,0,0,0,0,0,0,0,0,0,0,0,0,0,0,
0,0,0,0,0,0,0,0,0,0,0,0,0,0,0,0,0,0,0,0,0,0,0,0,0,0,0,0,0,0,0,0,0,0,0,0,0,0,0,0,0,0,0,0,0,0,0,0,
0,0,0,0,0,0,0,0,0,0,0,0,0,0,0,0,0,0,0,0,0,0,0,0,0,0,0,0,0,0,0,0,0,0,0,0,0,0,0,0,0,0,0,0,0,0,0,0,
0,0,0,0,0,0,0,0,0,0,0,0,0,0,0,0,0,0,0,0,0,0,0,0,0,0,0,0,0,0,0,0,0,0,0,0,0,0,0,0,0,0,0,0,0,0,0,0,
0,0,0,0,0,0,0,0,0,0,0,0,0,0,0,0,0,0,0,0,0,0,0,0,0,0,0,0,0,0,0,0,0,0,0,0,0,0,0,0,0,0,0,0,0,0,0,0,
0,0,0,0,0,0,0,0,0,0,0,0,0,0,0,0,0,0,0,0,0,0,0,0,0,0,0,0,0,0,0,0,0,0,0,0,0,0,0,0,0,0,0,0,0,0,0,0,
0,0,0,0,0,0,0,0,0,0,0,0,0,0,0,0,0,0,0,0,0,0,0,0,0,0,0,0,0,0,0,0,0,0,0,0,0,0,0,0,0,0,0,0,0,0,0,0,
0,0,0,0,0,0,0,0,0,0,0,0,0,0,0,0,0,0,0,0,0,0,0,0,0,0,0,0,0,0,0,0,0,0,0,0,0,0,0,0,0,0,0,0,0,0,0,0,
0,409,410,411,412,413,414,415,416,0,0,0,0,0,0,0,0,0,0,0,0,0,0,0,0,0,0,0,0,0,0,0,0,0,0,0,0,0,0,0,0,0,0,0,0,0,0,0,
0,441,442,443,444,445,446,447,448,0,0,0,0,0,0,0,0,0,0,0,0,0,0,0,0,0,0,0,0,0,0,0,0,0,0,0,0,0,0,0,0,0,0,0,0,0,0,0,
0,473,474,475,476,477,478,479,480,0,0,0,0,0,0,0,0,0,0,0,0,0,0,0,0,0,0,0,0,0,0,0,0,0,0,0,0,0,0,0,0,0,0,0,0,0,0,0,
0,505,506,507,508,509,510,511,512,0,0,0,0,0,0,0,0,0,0,0,0,0,0,0,0,0,0,0,0,0,0,0,0,0,0,0,0,0,0,0,0,0,0,0,0,0,0,0,
0,537,538,539,540,541,542,543,544,0,0,0,0,0,0,0,0,0,0,0,0,0,0,0,0,0,0,0,0,0,0,0,0,0,0,0,0,0,0,0,0,0,0,0,0,0,0,0,
0,569,570,571,572,573,574,575,576,0,0,0,0,0,0,0,0,0,0,0,0,0,0,0,0,0,0,0,0,0,0,0,0,0,0,0,0,0,0,0,0,0,0,0,0,0,0,0,
0,601,602,603,604,605,606,607,608,0,0,0,0,0,0,0,0,0,0,0,0,0,0,0,0,0,0,0,0,0,0,0,0,0,0,0,0,0,0,0,0,0,0,0,0,0,0,0,
0,633,634,635,636,637,638,639,640,0,0,0,0,0,0,0,0,0,0,0,0,0,0,0,0,0,0,0,0,0,0,0,0,0,0,0,0,0,0,0,0,0,0,0,0,0,0,0,
0,665,666,667,668,669,670,671,672,0,0,0,0,0,0,0,0,0,0,0,0,0,0,0,0,0,0,0,0,0,0,0,0,0,0,0,0,0,0,0,0,0,0,0,0,0,0,0,
0,697,698,699,700,701,702,703,704,0,0,0,0,0,0,0,0,0,0,0,0,0,0,0,0,0,0,0,0,0,0,0,0,0,0,0,0,0,0,0,0,0,0,0,0,0,0,0,
0,729,730,731,732,733,734,735,736,0,0,0,0,0,0,0,0,0,0,0,0,0,0,0,0,0,0,0,0,0,0,0,0,0,0,0,0,0,0,0,0,0,0,0,0,0,0,0,
0,761,762,763,764,765,766,767,768,0,0,0,0,0,0,0,0,0,0,0,0,0,0,0,0,0,0,0,0,0,0,0,0,0,0,0,0,0,0,0,0,0,0,0,0,0,0,0,
0,793,794,795,796,797,798,799,800,0,0,0,0,0,0,0,0,0,0,0,0,0,0,0,0,0,0,0,0,0,0,0,0,0,0,0,0,0,0,0,0,0,0,0,0,0,0,0,
0,825,826,827,828,829,830,831,832,0,0,0,0,0,0,0,0,0,0,0,0,0,0,0,0,0,0,0,0,0,0,0,0,0,0,0,0,0,0,0,0,0,0,0,0,0,0,0,
0,857,858,859,860,861,862,863,864,0,0,0,0,0,0,0,0,0,0,0,0,0,0,0,0,0,0,0,0,0,0,0,0,0,0,0,0,0,0,0,0,0,0,0,0,0,0,0,
0,889,890,891,892,893,894,895,896,0,0,0,0,0,0,0,0,0,0,0,0,0,0,0,0,0,0,0,0,0,0,0,0,0,0,0,0,0,0,0,0,0,0,0,0,0,0,0,
0,921,922,923,924,925,926,927,928,0,0,0,0,0,0,0,0,0,0,0,0,0,0,0,0,0,0,0,0,0,0,0,0,0,0,0,0,0,0,0,0,0,0,0,0,0,0,0,
0,953,954,955,956,957,958,959,960,0,0,0,0,0,0,0,0,0,0,0,0,0,0,0,0,0,0,0,0,0,0,0,0,0,0,0,0,0,0,0,0,0,0,0,0,0,0,0,
0,985,986,987,988,989,990,991,992,0,0,0,0,0,0,0,0,0,0,0,0,0,0,0,0,0,0,0,0,0,0,0,0,0,0,0,0,0,0,0,0,0,0,0,0,0,0,0,
0,1017,1018,1019,1020,1021,1022,1023,1024,0,0,0,0,0,0,0,0,0,0,0,0,0,0,0,0,0,0,0,0,0,0,0,0,0,0,0,0,0,0,0,0,0,0,0,0,0,0,0,
0,0,0,0,0,0,0,0,0,0,0,0,0,0,0,0,0,0,0,0,0,0,0,0,0,0,0,0,0,0,0,0,0,0,0,0,0,0,0,0,0,0,0,0,0,0,0,0,
0,0,0,0,0,0,0,0,0,0,0,0,0,0,0,0,0,0,0,0,0,0,0,0,0,0,0,0,0,0,0,0,0,0,0,0,0,0,0,0,0,0,0,0,0,0,0,0
</data>
 </layer>
 <layer id="18" name="DecorLow" width="48" height="32">
  <data encoding="csv">
0,809,810,0,809,810,0,0,0,0,0,0,1061,1062,1063,1064,1065,1066,1067,1068,0,0,0,1061,1062,1063,1064,1065,1066,1067,1068,0,0,1061,1062,1063,1064,1065,1066,1067,1068,0,0,0,0,0,0,0,
0,0,0,0,0,0,0,0,0,0,0,0,1079,1080,1081,1082,1083,1084,1085,1086,0,0,0,1079,1080,1081,1082,1083,1084,1085,1086,0,0,1079,1080,1081,1082,1083,1084,1085,1086,0,0,0,0,0,0,0,
0,0,0,0,0,0,0,0,0,0,0,0,0,0,0,0,0,0,0,0,0,0,0,0,0,0,0,0,0,0,0,0,0,0,0,0,0,0,0,0,0,0,0,0,0,0,0,0,
0,0,0,0,0,0,0,0,0,0,0,0,0,0,0,0,0,0,0,0,0,0,0,0,0,0,0,0,0,0,0,0,0,0,0,0,0,0,0,0,0,0,0,0,0,0,0,0,
0,0,0,0,0,0,0,0,0,0,0,0,0,0,0,0,0,0,0,0,0,0,0,0,0,0,0,0,0,0,0,0,0,0,0,0,0,0,0,0,0,0,905,906,907,908,0,0,
0,0,0,0,0,0,0,0,0,0,0,0,0,0,0,0,0,0,0,0,0,0,0,0,0,0,0,0,0,0,0,0,0,0,0,0,0,0,0,0,0,0,937,938,939,940,0,0,
0,0,0,0,0,0,0,0,0,0,0,0,0,0,0,0,0,0,0,0,0,0,0,0,0,0,0,0,0,0,0,0,0,0,0,0,0,0,0,0,0,0,969,970,971,972,0,0,
0,0,0,0,0,0,1001,0,0,0,0,0,0,0,0,0,0,0,0,0,0,0,0,0,0,0,0,0,0,0,0,0,0,0,0,0,0,0,0,0,0,0,1001,1002,1003,1004,0,0,
0,0,0,0,0,0,0,0,0,0,0,0,0,0,0,0,0,0,0,0,0,0,0,0,0,0,0,0,0,0,0,0,0,0,0,0,0,0,0,0,0,0,0,0,0,0,0,0,
0,0,0,0,0,0,0,0,0,0,0,0,0,0,0,0,0,0,0,0,0,0,0,0,0,0,0,0,0,0,0,0,0,0,0,0,0,0,0,1025,1026,1027,1028,1029,1030,1031,1032,0,
0,0,0,0,0,0,0,0,0,0,0,0,0,0,0,0,0,0,0,0,0,0,0,0,0,0,0,0,385,386,387,388,0,0,0,0,0,0,0,1043,1044,1045,1046,1047,1048,1049,1050,0,
0,0,0,0,0,0,0,0,0,0,0,0,0,0,0,0,0,0,0,0,0,0,0,0,0,0,0,0,417,418,419,420,0,0,0,0,0,0,0,0,0,0,0,0,0,0,0,0,
0,0,0,0,0,0,0,0,0,0,0,0,0,0,0,0,0,0,0,0,0,0,0,0,0,0,0,0,449,450,451,452,0,0,0,0,0,0,0,0,0,0,0,0,0,0,0,0,
0,0,0,0,0,0,0,0,0,0,0,0,0,0,0,0,0,0,0,0,0,0,0,0,0,0,0,0,481,482,483,484,0,0,0,0,0,0,0,0,0,0,0,0,0,0,0,0,
0,0,0,0,0,0,0,0,0,0,0,0,0,0,0,0,0,0,0,0,0,0,0,0,0,0,0,0,0,0,0,0,0,0,0,0,0,0,0,0,0,0,0,0,0,0,0,0,
0,0,0,0,0,0,0,0,0,0,0,0,0,0,0,0,0,0,0,0,0,0,0,0,0,0,0,0,0,0,0,0,0,0,0,0,0,0,0,0,0,0,0,0,0,0,0,0,
0,0,0,0,0,0,0,0,0,0,0,0,0,0,0,0,0,0,0,0,0,0,0,0,0,0,0,0,0,0,0,0,0,0,0,0,0,0,0,0,0,0,0,0,0,0,0,0,
0,0,0,0,0,0,0,0,0,0,0,0,0,0,0,0,0,0,0,0,0,0,0,0,0,0,0,0,0,0,0,0,0,0,0,0,0,0,0,0,0,0,0,0,0,0,0,0,
0,0,0,0,0,0,0,0,0,0,397,398,399,400,401,402,403,404,405,406,407,408,0,0,0,0,0,0,0,0,0,0,0,0,0,0,0,0,0,0,0,0,0,0,0,0,0,0,
0,0,0,0,0,0,0,0,0,0,429,430,431,432,433,434,435,436,437,438,439,440,0,0,0,0,0,0,0,0,0,0,0,0,0,0,0,0,0,0,0,0,0,0,0,0,0,0,
0,0,0,0,0,0,0,0,0,0,461,462,463,464,465,466,467,468,469,470,471,472,0,0,0,0,0,0,0,0,0,0,0,0,0,0,0,0,0,0,0,0,0,0,0,0,0,0,
0,0,0,0,0,0,0,0,0,0,493,494,495,496,497,498,499,500,501,502,503,504,0,0,0,9,10,11,12,13,14,15,16,17,18,0,0,0,0,0,0,0,0,0,0,0,0,0,
0,0,0,0,0,0,0,0,0,0,525,526,527,528,529,530,531,532,533,534,535,536,0,0,0,41,42,43,44,45,46,47,48,49,50,0,0,0,0,0,0,0,0,0,0,0,0,0,
0,0,0,0,0,0,0,0,0,0,557,558,559,560,561,562,563,564,565,566,567,568,0,0,0,73,74,75,76,77,78,79,80,81,82,0,0,0,0,0,0,0,0,0,0,0,0,0,
0,0,0,0,0,0,0,0,0,0,0,0,0,0,0,0,0,0,0,0,0,0,0,0,0,105,106,107,108,109,110,111,112,113,114,0,0,0,0,0,0,0,0,0,0,0,0,0,
0,0,0,0,0,0,0,0,0,0,0,0,0,0,0,0,0,0,0,0,0,0,0,0,0,137,138,139,140,141,142,143,144,145,146,0,0,0,0,0,0,0,0,0,0,0,0,0,
0,0,0,0,0,0,0,0,0,0,0,0,0,0,0,0,0,0,0,0,0,0,0,0,0,169,170,171,172,173,174,175,176,177,178,0,0,0,0,0,835,836,837,838,839,840,0,0,
0,0,0,0,0,0,0,0,0,0,0,0,0,0,0,0,0,0,0,0,0,0,0,0,0,0,0,0,0,0,0,0,0,0,0,0,0,0,0,0,867,868,869,870,871,872,0,0,
0,0,0,0,0,0,0,0,0,0,0,0,0,0,0,0,0,0,0,0,0,0,0,0,0,0,0,0,0,0,0,0,0,0,0,0,0,0,0,0,899,900,901,902,903,904,0,0,
0,0,0,0,0,0,0,0,0,0,0,0,0,0,0,0,0,0,0,0,0,0,0,0,0,0,0,0,0,0,0,0,0,0,0,0,0,0,0,0,931,932,933,934,935,936,0,0,
0,0,0,0,0,0,0,0,0,0,0,0,0,0,0,0,0,0,0,0,0,0,0,0,0,0,0,0,0,0,0,0,0,0,0,0,0,0,0,0,963,964,965,966,967,968,0,0,
0,0,0,0,0,0,0,0,0,0,0,0,0,0,0,0,0,0,0,0,0,0,0,0,0,0,0,0,0,0,0,0,0,0,0,0,0,0,0,0,995,996,997,998,999,1000,0,0
</data>
 </layer>
 <imagelayer id="19" name="NPCs" offsetx="456.667" offsety="212">
  <image source="../assets/characters/me.png" width="48" height="48"/>
 </imagelayer>
 <layer id="16" name="DecorHigh" width="48" height="32">
  <data encoding="csv">
0,0,0,0,0,0,0,0,0,0,0,0,0,0,0,0,0,0,0,0,0,0,0,0,0,0,0,0,0,0,0,0,0,0,0,0,0,0,0,0,0,0,0,0,0,0,0,0,
0,0,0,0,0,0,0,0,0,0,0,0,0,0,0,0,0,0,0,0,0,0,0,0,0,0,0,0,0,0,0,0,0,0,0,0,0,0,0,0,0,0,0,0,0,0,0,0,
0,0,0,0,0,0,0,0,0,0,0,0,0,199,200,201,202,203,204,0,0,0,0,0,205,206,207,208,209,210,0,0,0,0,211,212,213,214,215,216,0,0,0,0,0,0,0,0,
0,0,0,0,0,0,0,0,0,0,0,0,0,231,232,233,234,235,236,0,0,0,0,0,237,238,239,240,241,242,0,0,0,0,243,244,245,246,247,248,0,0,0,0,0,0,0,0,
0,0,0,0,0,0,0,0,0,0,0,0,0,263,264,265,266,267,268,0,0,0,0,0,269,270,271,272,273,274,0,0,0,0,275,276,277,278,279,280,0,0,0,0,0,0,0,0,
0,0,0,0,0,0,0,0,0,0,0,0,0,295,296,297,298,299,300,0,0,0,0,0,301,302,303,304,305,306,0,0,0,0,307,308,309,310,311,312,0,0,0,0,0,0,0,0,
1350,1351,1352,1353,1354,0,0,0,0,0,0,0,0,327,328,329,330,331,332,0,0,0,0,0,333,334,335,336,337,338,0,0,0,0,339,340,341,342,343,344,0,0,0,0,0,0,0,0,
1356,1357,1358,1359,1360,0,0,0,0,0,0,0,0,359,360,361,362,363,364,0,0,0,0,0,365,366,367,368,369,370,0,0,0,0,371,372,373,374,375,376,0,0,0,0,0,0,0,0,
1362,1363,1364,1365,1366,0,0,0,0,0,0,0,0,0,0,0,0,0,0,0,0,0,0,0,0,0,0,0,0,0,0,0,0,0,0,0,0,0,0,0,0,0,0,0,0,0,0,0,
1368,1369,1370,1371,1372,0,0,0,0,0,0,0,0,0,0,0,0,0,0,0,0,0,0,0,0,0,0,0,0,0,0,0,0,0,0,0,0,0,0,0,0,0,0,0,0,0,0,0,
1374,1375,1376,1377,1378,0,0,0,0,0,0,0,0,0,0,0,0,0,0,0,0,0,0,0,0,0,0,0,0,0,0,0,0,0,0,0,0,0,0,0,0,0,0,0,0,0,0,0,
1380,1381,1382,1383,1384,0,0,0,0,0,0,0,0,0,0,0,0,0,0,0,0,0,0,0,0,0,0,0,0,0,0,0,0,0,0,0,0,0,0,0,211,212,213,214,215,216,0,0,
0,0,0,0,0,0,0,0,0,0,0,0,0,0,0,0,0,0,0,0,0,0,0,0,0,0,0,0,0,0,0,0,0,0,0,0,0,0,0,0,243,244,245,246,247,248,0,0,
0,0,0,0,0,0,0,0,0,0,0,0,0,0,0,0,0,0,0,0,0,0,0,0,0,0,0,0,0,0,0,0,0,0,0,0,0,0,0,0,275,276,277,278,279,280,0,0,
0,0,0,0,0,0,0,0,0,0,0,0,0,0,0,0,0,0,0,0,0,0,0,0,0,0,217,218,219,220,221,222,223,224,0,0,0,0,0,0,307,308,309,310,311,312,0,0,
0,0,0,0,0,0,0,0,0,0,0,0,0,0,0,0,0,0,0,0,0,0,0,0,0,0,249,250,251,252,253,254,255,256,0,0,0,0,0,0,339,340,341,342,343,344,0,0,
0,0,0,0,0,0,0,0,0,0,0,0,0,0,0,0,0,0,0,0,0,0,0,0,0,0,281,282,283,284,285,286,287,288,0,0,0,0,0,0,371,372,373,374,375,376,0,0,
0,0,0,0,0,0,0,0,0,0,393,394,395,0,0,0,0,0,521,522,523,524,0,0,0,0,313,314,315,316,317,318,319,320,0,0,0,0,0,0,0,0,0,0,0,0,0,0,
0,0,0,0,0,0,0,0,0,0,425,426,427,0,0,0,0,0,553,554,555,556,0,0,0,0,345,346,347,348,349,350,351,352,0,0,0,0,0,0,0,0,0,0,0,0,0,0,
0,0,0,0,0,0,0,0,0,0,457,458,459,0,0,0,0,0,585,586,587,588,0,0,0,0,377,378,379,380,381,382,383,384,0,0,0,0,0,0,0,0,0,0,0,0,0,0,
0,0,0,0,0,0,0,0,0,0,489,490,491,0,0,0,0,0,617,618,619,620,0,0,0,0,0,0,0,0,0,0,0,0,0,0,0,0,0,0,0,0,0,0,0,0,0,0,
0,0,0,0,0,0,0,0,0,0,0,0,0,0,0,0,0,0,0,0,0,0,0,0,0,0,0,0,0,0,0,0,0,0,0,0,0,0,0,0,0,0,0,0,0,0,0,0,
0,0,0,0,0,0,0,0,0,0,0,0,0,0,0,0,0,0,0,0,0,0,0,0,0,0,0,0,0,0,0,0,0,0,0,0,0,0,0,0,0,0,0,0,0,0,0,0,
0,0,0,0,0,0,0,0,0,0,0,0,0,0,649,650,651,652,0,0,0,0,0,0,0,0,0,0,0,0,0,0,0,0,0,0,0,0,0,0,0,0,0,0,0,0,0,0,
0,0,0,0,0,0,0,0,0,0,0,0,0,0,681,682,683,684,0,0,0,0,0,0,0,0,0,0,0,0,0,0,0,0,0,0,0,0,0,0,0,0,0,0,0,0,0,0,
0,0,0,0,0,0,0,0,0,0,0,0,0,0,713,714,715,716,0,0,0,0,0,0,0,0,0,0,0,0,0,0,0,0,0,0,0,0,0,0,0,0,0,0,0,0,0,0,
0,0,0,0,0,0,0,0,0,0,0,0,0,0,745,746,747,748,0,0,0,0,0,0,0,0,0,0,0,0,0,0,0,0,0,0,0,0,0,0,0,0,0,0,0,0,0,0,
0,0,0,0,0,0,0,0,0,0,0,0,0,0,0,0,0,0,0,0,0,0,0,0,0,0,0,0,0,0,0,0,0,0,0,0,0,0,0,0,0,0,0,0,0,0,0,0,
0,0,0,0,0,0,0,0,0,0,0,0,0,0,0,0,0,0,0,0,0,0,0,0,0,0,0,0,0,0,0,0,0,0,0,0,0,0,0,0,0,0,0,0,0,0,0,0,
0,0,0,0,0,0,0,0,0,0,0,0,0,0,0,0,0,0,0,0,0,0,0,0,0,0,0,0,0,0,0,0,0,0,0,0,0,0,0,0,0,0,0,0,0,0,0,0,
0,0,0,0,0,0,0,0,0,0,0,0,0,0,0,0,0,0,0,0,0,0,0,0,0,0,0,0,0,0,0,0,0,0,0,0,0,0,0,0,0,0,0,0,0,0,0,0,
0,0,0,0,0,0,0,0,0,0,0,0,0,0,0,0,0,0,0,0,0,0,0,0,0,0,0,0,0,0,0,0,0,0,0,0,0,0,0,0,0,0,0,0,0,0,0,0
</data>
 </layer>
 <objectgroup id="23" name="text">
  <object id="1" x="208" y="16" width="105.167" height="19">
   <text fontfamily="Sans Serif Collection" pixelsize="12" wrap="1" color="#ffffff" halign="center" valign="center">Computer Vision</text>
  </object>
  <object id="7" x="400" y="16" width="70.834" height="19">
   <text fontfamily="Sans Serif Collection" pixelsize="12" wrap="1" color="#ffffff" halign="center" valign="center">NLP &amp; LLMs</text>
  </object>
  <object id="8" x="560" y="16" width="61.833" height="16">
   <text fontfamily="Sans Serif Collection" pixelsize="12" wrap="1" color="#ffffff" halign="center" valign="center">Agentic AI</text>
  </object>
  <object id="10" x="688" y="160" width="15.1971" height="11.3636">
   <text fontfamily="Sans Serif Collection" pixelsize="12" wrap="1" color="#ffffff" halign="center" valign="center">RL</text>
  </object>
  <object id="17" x="13.1667" y="151.833" width="50.8333" height="19">
   <text fontfamily="Sans Serif Collection" wrap="1" color="#ffffff" halign="center" valign="center">More</text>
  </object>
 </objectgroup>
</map>
